packages/dialtone-icons/src/svg/icons/weather/sun-medium.svg

<svg width="12" height="12" viewBox="0 0 12 12" fill="none" xmlns="http://www.w3.org/2000/svg">
<path fill-rule="evenodd" clip-rule="evenodd" d="M4.23223 4.23223C4.70107 3.76339 5.33696 3.5 6 3.5C6.66304 3.5 7.29893 3.76339 7.76777 4.23223C8.23661 4.70107 8.5 5.33696 8.5 6C8.5 6.66304 8.23661 7.29893 7.76777 7.76777C7.29893 8.23661 6.66304 8.5 6 8.5C5.33696 8.5 4.70107 8.23661 4.23223 7.76777C3.76339 7.29893 3.5 6.66304 3.5 6C3.5 5.33696 3.76339 4.70107 4.23223 4.23223ZM6 4.5C5.60218 4.5 5.22064 4.65804 4.93934 4.93934C4.65804 5.22064 4.5 5.60218 4.5 6C4.5 6.39782 4.65804 6.77936 4.93934 7.06066C5.22064 7.34196 5.60218 7.5 6 7.5C6.39782 7.5 6.77936 7.34196 7.06066 7.06066C7.34196 6.77936 7.5 6.39782 7.5 6C7.5 5.60218 7.34196 5.22064 7.06066 4.93934C6.77936 4.65804 6.39782 4.5 6 4.5Z" fill="black"/>
<path fill-rule="evenodd" clip-rule="evenodd" d="M6 1C6.27614 1 6.5 1.22386 6.5 1.5V2C6.5 2.27614 6.27614 2.5 6 2.5C5.72386 2.5 5.5 2.27614 5.5 2V1.5C5.5 1.22386 5.72386 1 6 1Z" fill="black"/>
<path fill-rule="evenodd" clip-rule="evenodd" d="M6 9.5C6.27614 9.5 6.5 9.72386 6.5 10V10.5C6.5 10.7761 6.27614 11 6 11C5.72386 11 5.5 10.7761 5.5 10.5V10C5.5 9.72386 5.72386 9.5 6 9.5Z" fill="black"/>
<path fill-rule="evenodd" clip-rule="evenodd" d="M1 6C1 5.72386 1.22386 5.5 1.5 5.5H2C2.27614 5.5 2.5 5.72386 2.5 6C2.5 6.27614 2.27614 6.5 2 6.5H1.5C1.22386 6.5 1 6.27614 1 6Z" fill="black"/>
<path fill-rule="evenodd" clip-rule="evenodd" d="M9.5 6C9.5 5.72386 9.72386 5.5 10 5.5H10.5C10.7761 5.5 11 5.72386 11 6C11 6.27614 10.7761 6.5 10.5 6.5H10C9.72386 6.5 9.5 6.27614 9.5 6Z" fill="black"/>
<path fill-rule="evenodd" clip-rule="evenodd" d="M9.53555 2.46445C9.73082 2.65971 9.73082 2.97629 9.53555 3.17155L9.18205 3.52505C8.98679 3.72032 8.67021 3.72032 8.47495 3.52505C8.27968 3.32979 8.27968 3.01321 8.47495 2.81795L8.82845 2.46445C9.02371 2.26918 9.34029 2.26918 9.53555 2.46445Z" fill="black"/>
<path fill-rule="evenodd" clip-rule="evenodd" d="M3.52505 8.47495C3.72032 8.67021 3.72032 8.98679 3.52505 9.18205L3.17155 9.53555C2.97629 9.73082 2.65971 9.73082 2.46445 9.53555C2.26918 9.34029 2.26918 9.02371 2.46445 8.82845L2.81795 8.47495C3.01321 8.27968 3.32979 8.27968 3.52505 8.47495Z" fill="black"/>
<path fill-rule="evenodd" clip-rule="evenodd" d="M2.46445 2.46445C2.65971 2.26918 2.97629 2.26918 3.17155 2.46445L3.52505 2.81795C3.72032 3.01321 3.72032 3.32979 3.52505 3.52505C3.32979 3.72032 3.01321 3.72032 2.81795 3.52505L2.46445 3.17155C2.26918 2.97629 2.26918 2.65971 2.46445 2.46445Z" fill="black"/>
<path fill-rule="evenodd" clip-rule="evenodd" d="M8.47495 8.47495C8.67021 8.27968 8.98679 8.27968 9.18205 8.47495L9.53555 8.82845C9.73082 9.02371 9.73082 9.34029 9.53555 9.53555C9.34029 9.73082 9.02371 9.73082 8.82845 9.53555L8.47495 9.18205C8.27968 8.98679 8.27968 8.67021 8.47495 8.47495Z" fill="black"/>
</svg>

<svg xmlns="http://www.w3.org/2000/svg" width="12" height="12" fill="none" viewBox="0 0 12 12">
  <path fill="#000" fill-rule="evenodd" d="M4.232 4.232a2.5 2.5 0 1 1 3.536 3.536 2.5 2.5 0 0 1-3.536-3.536ZM6 4.5a1.5 1.5 0 1 0 0 3 1.5 1.5 0 0 0 0-3ZM6 1a.5.5 0 0 1 .5.5V2a.5.5 0 0 1-1 0v-.5A.5.5 0 0 1 6 1Zm0 8.5a.5.5 0 0 1 .5.5v.5a.5.5 0 0 1-1 0V10a.5.5 0 0 1 .5-.5ZM1 6a.5.5 0 0 1 .5-.5H2a.5.5 0 0 1 0 1h-.5A.5.5 0 0 1 1 6Zm8.5 0a.5.5 0 0 1 .5-.5h.5a.5.5 0 0 1 0 1H10a.5.5 0 0 1-.5-.5Zm.036-3.536a.5.5 0 0 1 0 .708l-.354.353a.5.5 0 1 1-.707-.707l.353-.354a.5.5 0 0 1 .708 0ZM3.525 8.475a.5.5 0 0 1 0 .707l-.353.354a.5.5 0 1 1-.708-.708l.354-.353a.5.5 0 0 1 .707 0ZM2.464 2.464a.5.5 0 0 1 .708 0l.353.354a.5.5 0 1 1-.707.707l-.354-.353a.5.5 0 0 1 0-.708Zm6.011 6.011a.5.5 0 0 1 .707 0l.354.353a.5.5 0 0 1-.708.708l-.353-.354a.5.5 0 0 1 0-.707Z" clip-rule="evenodd"/>
</svg>
